X:42
T:Polska
T:efter Pelle Fors
O:Vikbolandet, \~nstergtland
S:efter Pelle Fors
B:Ltar efter Pelle Fors
R:Polska
Z:Bjrn Ek 2009-01-02
N:Nr 42 i Ltar efter Pelle Fors
M:3/4
L:1/8
K:G
%
|:g2 f2 g2|(a/g/)f/e/ dc BG|g>f bg dB|AB cA ag|(f/g/)f/e/ d4:|
%
c2 (BA) (BG)|g2 (fe) (fd)|c2 (BA) (BG)|g2 (fe) (fd)||
%
L:1/16
%
|:(DF)AF (DF)AF (DF)AF|(DG)BG (DG)BG (DG)BG|(DF)AF (DF)AF (DF)AF|
(DG)BG (DG)BG (DG)BG  |A2B2 c2d2 e2=f2     |(gf)e^c c2d2 d4    :|
%
